X:5
T:The Montana Jig
R:jig
C:Carl MacKenzie (SOCAN)
N:Composed for Rex Blazer
D:Natalie MacMaster, LIVE, 2002
Z:Paul Stewart Cranford (P.S.C.), <http://www.cranfordpub.com>
L:1/8
Q:288
M:6/8
K:D
d3 F2 A|GFG EFG|AFD dcd|ecA ABc|
d3 F2 A|GFG EFG|AFd BGE|1AFD DBc:|2AFD D2||
|:b|afd dfa|BcB Bcd|efg Bed|cAA ABc|
dAF Adf|gab Bcd|efg ABc|[1d3 d2:|[2d3 ABc||
